usr/share/icons/biglinux-icons-material-dark/22/actions/mail-attachment.svg

<svg xmlns="http://www.w3.org/2000/svg" viewBox="0 0 22 22">
  <defs id="defs3051">
    <style type="text/css" id="current-color-scheme">
      .ColorScheme-Text {
        color:#dedede;
      }
      </style>
  </defs>
 <path 
    style="fill:currentColor;fill-opacity:1;stroke:none" 
    d="M 12.902344 3 L 3.734375 12.167969 C 2.167415 13.734929 2.167415 16.257279 3.734375 17.824219 C 5.301315 19.391169 7.823675 19.391169 9.390625 17.824219 L 17.851562 9.3632812 L 18.558594 8.65625 C 19.733804 7.48104 19.733794 5.5892625 18.558594 4.4140625 C 17.383384 3.2388525 15.491616 3.2388525 14.316406 4.4140625 L 13.609375 5.1210938 L 5.1484375 13.582031 C 4.3649575 14.365511 4.3649675 15.626686 5.1484375 16.410156 C 5.9319175 17.193636 7.1930825 17.193646 7.9765625 16.410156 L 16.4375 7.9492188 L 15.730469 7.2421875 L 7.9765625 14.996094 L 7.2695312 15.703125 C 6.8777912 16.094865 6.2471888 16.094865 5.8554688 15.703125 C 5.4637287 15.311405 5.4637187 14.680813 5.8554688 14.289062 L 14.316406 5.828125 L 15.023438 5.1210938 C 15.806917 4.3376037 17.068092 4.3376037 17.851562 5.1210938 C 18.635042 5.9045538 18.635042 7.1657387 17.851562 7.9492188 L 8.6835938 17.117188 C 7.5083838 18.292397 5.6166162 18.292397 4.4414062 17.117188 C 3.2661862 15.941977 3.2661862 14.05021 4.4414062 12.875 L 13.609375 3.7070312 L 12.902344 3 z "
    class="ColorScheme-Text"
    />  
</svg>

<svg xmlns="http://www.w3.org/2000/svg" viewBox="0 0 22 22">
<defs id="defs3051">
<style id="current-color-scheme" type="text/css">
.ColorScheme-Text{color:#dedede}
</style>
</defs>
<path d="m12.902 3-9.168 9.168a3.99 3.99 0 0 0 0 5.656 3.99 3.99 0 0 0 5.657 0l8.46-8.46.708-.708a2.993 2.993 0 0 0 0-4.242 2.993 2.993 0 0 0-4.243 0l-.707.707-8.46 8.461a1.995 1.995 0 0 0 0 2.828 1.995 1.995 0 0 0 2.828 0l8.46-8.46-.707-.708-7.753 7.754-.707.707a1 1 0 0 1-1.415 0 1 1 0 0 1 0-1.414l8.461-8.46.707-.708a1.995 1.995 0 0 1 2.829 0 1.995 1.995 0 0 1 0 2.828l-9.168 9.168a2.993 2.993 0 0 1-4.243 0 2.993 2.993 0 0 1 0-4.242l9.168-9.168z" class="ColorScheme-Text" style="fill:currentColor;fill-opacity:1;stroke:none"/>
</svg>
